X:1
T:Si je me plains (PR)
T:Si je me plains (PR)
T:Philippe Rogier
C:Philippe Rogier
%%score [ 1 [ 2 3 ] 4 ]
L:1/8
Q:1/4=120
M:2/2
K:F
V:1 treble nm="Soprano" snm="S"
V:2 treble-8 nm="Tenor 1" snm="T 1"
V:3 treble-8 nm="Tenor 2" snm="T 2"
V:4 bass nm="Bass" snm="B"
V:1
 F4 F2 G2 | A6 A2 | B2 A2 A2 G2 | A4 z2 F2 | E2 D2 A2 A2 | G2 F2 G2 B2 | A6 F2 | BAGF E2 F2- | %8
w: Si tu te|plains d'a-|mour tant seul- le-|ment, et|que de moy as-|sez tu te con-|ten- te,|con- * * * * *|
 F2 E2 F4 | z2 F2 F2 G2 | A6 A2 | B2 A2 A2 G2 | A4 z2 F2 | E2 D2 A2 A2 | G2 F2 G2 B2 | A6 F2 | %16
w: * ten- te,|vis en es-|poir d'a-|voir al- le- ge-|ment,, et|d'ob- te- nir ce|où est ton en-|ten- te,|
 BAGF E2 F2- | F2 E2 F2 A2 | A4 G4 | F4 z2 F2 | E2 F2 G2 F2 | D2 A3 GFE | F4 E4- | E4 z2 F2 | %24
w: en _ _ _ _ _|_ ten- te, car|non ob-|stant qu'à|l'ay- mer je con-|sen- * * * *|* te,|_ l'hon-|
 G4 A4 | F4 z2 F2 | F2 F2 G2 E2 | F4 C2 F2 | D2 A3 G F2- | F2 E2 F2 F2 | F4 G4 | A8 | z2 A2 A2 F2 | %33
w: neur y|veut main-|tes fois con- tre|di- re, con-|tre- di- * *|* * re, mais|pos- si-|bl'est,|qu'a- pres la|
 G2 A2 B4 | A4 z2 F2 | F2 G2 A2 A2 | A2 F2 BAGF | E2 F4 E2 | F8 |] %39
w: lon- gu'at- ten-|te, a-|voir pour- ras le|bien que tu _ _ _|_ de- si-|res.|
V:2
 c4 d2 e2 | f6 f2 | f2 f2 f2 d2 | f2 d2 B2 B2 | c2 d2 c2 c2 | d2 f2 e2 f2 | f2 ed c2 A2 | %7
w: Si tu te|plains d'a-|mour tant seul- le-|ment, _ et que|de moy as- sez,|et que e moy|as- * * sez tu|
 d4 c2 B2 | c3 B A4 | z2 c2 d2 e2 | f6 f2 | f2 f2 f2 d2 | f2 d2 B2 B2 | e2 f2 c4 | d2 f2 e2 f2- | %15
w: te con- ten-|* * te,|vis en es-|poir d'a-|voir al- le- ge-|ment, et d'ob- te-|nir,- et d'ob-|te- nir ce où|
 f2 ed c2 A2 | d4 c2 B2 | c3 B A2 A2 | f4 d4 | d4 z2 d2 | c3 d _e2 d2 | Bc d3 c c2- | c2 B2 c4- | %23
w: _ _ _ _ est|ton en- ten-|* * te, car|non ob-|stant qu'à|l'ay- mer je con|sen- * * * *|* * te,|
 c2 c2 c2 d2 | e2 c2 c2 c2 | d2 A2 B4 | A4 z2 G2 | A2 A2 A2 A2 | B2 F2 A3 B | c4 c2 c2 | d6 e2 | %31
w: _ l'hon- neur y|veut main- tes fois|con- tre- di-|re, l'hon-|neur y veut main-|tes fois con- tre-|di- re, mais|pos- si-|
 f4 F4 | z2 f2 f3 e | d2 c2 B2 G2 | c4 z2 c2 | d2 e2 f4 | z2 A2 d2 d2 | c2 B2 c4 | A8 |] %39
w: * bl'est,|qu'a- pres le|lon- gu'at- ten- *|te, a-|voir pour- ras|le bien que|tu de- si-|res.|
V:3
 A4 A2 c2 | A6 c2 | d2 c2 A2 B2 | A2 A2 G2 F2 | G2 B2 A2 c2 | B2 A2 c2 d2 | c6 c2 | B3 A G2 F2 | %8
w: Si tu te|plains d'a-|mour tant seul- le-|ment, et que de|moy as- sez, et|que de moy a-|sez tu|te _ _ con-|
 G4 F4 | A4 A2 c2 | A6 c2 | d2 c2 A2 B2 | A2 A2 G2 F2 | G2 B2 A2 c2 | B2 A2 c2 d2 | c6 c2 | %16
w: ten- te,|vis en es-|poir d'a-|voir al- le- ge-|ment, et d'ob- te-|nir, et d'ob- te-|nir ce où est|ton en-|
 B3 A G2 F2 | G4 F2 c2 | c4 B4 | A8 | z2 A2 G2 A2 | B2 A2 F4- | F4 G4 | z2 G2 A2 A2 | c3 B A4- | %25
w: ten- * * *|* te, car|non ob-|stant|qu'à l'ay- mer|je con- sen-|* te,|l'hon- neur y|veut _ _|
 A4 z4 | z2 c2 c2 c2 | d2 A2 c4 | B2 d2 c2 cB/A/ | G4 F2 A2 | B4 B4 | A2 d2 c3 B | A3 G FE D2- | %33
w: _|main- tes fois|con- tre- di-|re, con- tre di- * *|* re, mais|pos- si-|bl'est, qu'a- pres la|lon- * * * *|
 DC F4 E2 | F2 F2 A4 | A2 c2 A4 | c2 c2 B3 A | G2 F2 G4 | F8 |] %39
w: * gu'at- ten- *|te, a- voir|pour- ras le|bien que tu _|_ de- si-|res.|
V:4
 F,4 D,2 C,2 | F,6 F,2 | B,,2 F,2 F,2 G,2 | D,4 z2 D,2 | C,2 B,,2 F,4 | z2 D,2 C,2 B,,2 | F,6 F,2 | %7
w: Si tu te|plains d'a-|mour tant seul- le-|ment, et|que de moy|et que de|moy as-|
 B,,2 B,,2 C,2 D,2 | C,4 F,,4 | F,4 D,2 C,2 | F,6 F,2 | B,,2 F,2 F,2 G,2 | D,4 z2 D,2 | %13
w: sez tu te con-|ten- te,|vis en es-|poir d'-|voir al- le- ge-|ment, et|
 C,2 B,,2 F,4 | z2 D,2 C,2 B,,2 | F,6 F,2 | B,,2 B,,2 C,2 D,2 | C,4 F,,2 F,2 | F,4 G,4 | D,8 | %20
w: d'ob- te- nir,-|et d'ob- te-|nir ce|où est ton en-|ten- te, car|non ob-|stant|
 z2 F,2 C,2 F,2 | G,2 F,2 F,E,D,C, | D,4 C,4 | z2 C,2 F,2 D,2 | C,4 z2 F,2 | F,2 F,2 G,2 D,2 | %26
w: qu'à l'ay- mer|je con- sen- * * *|* te,|l'hon- neur y|veut main-|tes fois con- tre-|
 F,4 C,4 | z2 F,2 F,2 F,2 | G,2 D,2 F,4 | C,4 z2 F,,2 | B,,4 G,,4 | D,4 z2 F,2 | F,3 E, D,3 C, | %33
w: di- re,|main- tes fois|con- tre- di-|re, mais|pos- si-|bl'est qu'a-|pres la lon- *|
 B,,2 A,,2 G,,4 | F,,4 F,4 | D,2 C,2 F,4- | F,2 F,2 B,,2 B,,2 | C,2 D,2 C,4 | F,,8 |] %39
w: * gu'at- ten-|te, a-|voir pour- ras|_ le bien que|tu de- si-|res|

